docs/images/clover.svg

<svg xmlns="http://www.w3.org/2000/svg" width="64" height="64">
    <path d="m27.552 33.984.128-.128 1.632-1.76.064-.096-.064-.096c-.512-.608-1.088-1.184-1.6-1.76l-.16-.128c-7.008-7.712-11.456-12.32-16.096-13.632A10.6 10.6 0 0 0 8.608 16C3.808 16 0 20 0 24.8c0 2.016.608 4 1.76 5.6.416.576.896 1.12 1.44 1.6a9.7 9.7 0 0 0-1.44 1.6C.608 35.2 0 37.248 0 39.392 0 44.192 4 48 8.8 48c.896 0 1.792-.128 2.656-.352C16 46.4 20.48 41.76 27.552 33.984M20.704 32c-2.88 3.104-5.088 5.408-7.072 7.072C10.976 41.312 9.6 41.6 8.8 41.6c-1.44 0-2.4-1.12-2.4-2.208 0-1.216.448-2.08 1.056-2.592L12.8 32l-5.344-4.8c-.64-.544-1.056-1.44-1.056-2.4 0-1.44 1.12-2.4 2.208-2.4.992 0 2.368.32 5.024 2.56 1.984 1.632 4.192 3.936 7.072 7.04m-4.32 20.576A10.3 10.3 0 0 0 16 55.392c0 4.8 4 8.608 8.8 8.608 2.016 0 4-.608 5.6-1.76A9.7 9.7 0 0 0 32 60.8a9.7 9.7 0 0 0 1.6 1.44c1.6 1.152 3.648 1.76 5.792 1.76 4.8 0 8.608-4 8.608-8.8 0-.896-.128-1.792-.352-2.656C46.4 48 41.76 43.52 33.984 36.448l-.128-.128-1.76-1.6-.096-.096-.096.096-1.76 1.6-.128.096c-7.712 7.04-12.32 11.488-13.632 16.16M32 43.296c3.104 2.88 5.408 5.088 7.072 7.072C41.312 53.024 41.6 54.4 41.6 55.2c0 1.44-1.12 2.4-2.208 2.4-1.216 0-2.08-.448-2.592-1.056L32 51.2l-4.8 5.344c-.544.64-1.44 1.056-2.4 1.056-1.44 0-2.4-1.12-2.4-2.208 0-.992.32-2.368 2.56-5.024 1.632-1.984 3.936-4.192 7.04-7.072m4.448-9.312c7.04 7.712 11.456 12.32 16.128 13.632.928.256 1.824.384 2.816.384 4.8 0 8.608-4 8.608-8.8 0-2.016-.608-4-1.76-5.6A9.7 9.7 0 0 0 60.8 32a9.7 9.7 0 0 0 1.44-1.6c1.152-1.6 1.76-3.616 1.76-5.792 0-4.8-4-8.608-8.8-8.608-.896 0-1.792.128-2.656.352C48 17.6 43.52 22.24 36.448 30.016l-.096.128L34.656 32l1.696 1.856zM43.328 32c2.848-3.104 5.088-5.408 7.04-7.072C53.056 22.688 54.4 22.4 55.2 22.4c1.44 0 2.4 1.12 2.4 2.208 0 1.216-.448 2.08-1.056 2.592L51.2 32l5.344 4.8a3.23 3.23 0 0 1 1.056 2.4c0 1.44-1.12 2.4-2.208 2.4-.992 0-2.368-.32-5.024-2.56-1.952-1.632-4.192-3.936-7.04-7.04m-9.344-4.416c7.712-7.04 12.32-11.488 13.632-16.128.256-.928.384-1.856.384-2.848C48 3.808 44 0 39.2 0c-2.016 0-4 .608-5.6 1.76A9.7 9.7 0 0 0 32 3.2a9.7 9.7 0 0 0-1.6-1.44C28.8.608 26.784 0 24.608 0 19.808 0 16 4 16 8.8c0 .896.128 1.792.352 2.656C17.6 16 22.24 20.48 30.016 27.584l.128.096 1.76 1.6.096.096.096-.064 1.792-1.632.096-.128M32 20.704c-3.104-2.88-5.408-5.088-7.072-7.072C22.688 10.976 22.4 9.6 22.4 8.8c0-1.44 1.12-2.4 2.208-2.4 1.216 0 2.08.448 2.592 1.056L32 12.8l4.8-5.344A3.23 3.23 0 0 1 39.2 6.4c1.44 0 2.4 1.12 2.4 2.208 0 .992-.32 2.368-2.56 5.024-1.632 1.984-3.936 4.192-7.04 7.072" style="fill:#009e60;fill-opacity:1;stroke-width:3.19999"/>
</svg>

<?xml version="1.0" encoding="UTF-8" standalone="no"?>
<svg
   id="mdi-clover-outline"
   viewBox="0 0 64 64"
   version="1.1"
   sodipodi:docname="clover.svg"
   inkscape:version="1.1.2 (0a00cf5339, 2022-02-04)"
   width="64"
   height="64"
   xmlns:inkscape="http://www.inkscape.org/namespaces/inkscape"
   xmlns:sodipodi="http://sodipodi.sourceforge.net/DTD/sodipodi-0.dtd"
   xmlns="http://www.w3.org/2000/svg"
   xmlns:svg="http://www.w3.org/2000/svg">
  <defs
     id="defs7" />
  <sodipodi:namedview
     id="namedview5"
     pagecolor="#ffffff"
     bordercolor="#666666"
     borderopacity="1.0"
     inkscape:pageshadow="2"
     inkscape:pageopacity="0.0"
     inkscape:pagecheckerboard="0"
     showgrid="false"
     inkscape:zoom="12.609375"
     inkscape:cx="32"
     inkscape:cy="32"
     inkscape:window-width="1850"
     inkscape:window-height="1016"
     inkscape:window-x="0"
     inkscape:window-y="0"
     inkscape:window-maximized="1"
     inkscape:current-layer="mdi-clover-outline" />
  <path
     d="M 27.552,33.984 27.68,33.856 29.312,32.096 29.376,32 29.312,31.904 c -0.512,-0.608 -1.088,-1.184 -1.6,-1.76 l -0.16,-0.128 C 20.544,22.304 16.096,17.696 11.456,16.384 10.528,16.128 9.6,16 8.608,16 3.808,16 0,20 0,24.8 c 0,2.016 0.608,4 1.76,5.6 C 2.176,30.976 2.656,31.52 3.2,32 2.656,32.48 2.176,33.024 1.76,33.6 0.608,35.2 0,37.248 0,39.392 0,44.192 4,48 8.8,48 9.696,48 10.592,47.872 11.456,47.648 16,46.4 20.48,41.76 27.552,33.984 M 20.704,32 c -2.88,3.104 -5.088,5.408 -7.072,7.072 C 10.976,41.312 9.6,41.6 8.8,41.6 7.36,41.6 6.4,40.48 6.4,39.392 6.4,38.176 6.848,37.312 7.456,36.8 L 12.8,32 7.456,27.2 C 6.816,26.656 6.4,25.76 6.4,24.8 c 0,-1.44 1.12,-2.4 2.208,-2.4 0.992,0 2.368,0.32 5.024,2.56 1.984,1.632 4.192,3.936 7.072,7.04 m -4.32,20.576 C 16.128,53.504 16,54.4 16,55.392 c 0,4.8 4,8.608 8.8,8.608 2.016,0 4,-0.608 5.6,-1.76 0.576,-0.416 1.12,-0.896 1.6,-1.44 0.48,0.544 1.024,1.024 1.6,1.44 C 35.2,63.392 37.248,64 39.392,64 44.192,64 48,60 48,55.2 48,54.304 47.872,53.408 47.648,52.544 46.4,48 41.76,43.52 33.984,36.448 L 33.856,36.32 32.096,34.72 32,34.624 l -0.096,0.096 -1.76,1.6 -0.128,0.096 c -7.712,7.04 -12.32,11.488 -13.632,16.16 M 32,43.296 c 3.104,2.88 5.408,5.088 7.072,7.072 2.24,2.656 2.528,4.032 2.528,4.832 0,1.44 -1.12,2.4 -2.208,2.4 -1.216,0 -2.08,-0.448 -2.592,-1.056 L 32,51.2 27.2,56.544 c -0.544,0.64 -1.44,1.056 -2.4,1.056 -1.44,0 -2.4,-1.12 -2.4,-2.208 0,-0.992 0.32,-2.368 2.56,-5.024 1.632,-1.984 3.936,-4.192 7.04,-7.072 m 4.448,-9.312 c 7.04,7.712 11.456,12.32 16.128,13.632 C 53.504,47.872 54.4,48 55.392,48 60.192,48 64,44 64,39.2 64,37.184 63.392,35.2 62.24,33.6 61.824,33.024 61.344,32.48 60.8,32 61.344,31.52 61.824,30.976 62.24,30.4 63.392,28.8 64,26.784 64,24.608 64,19.808 60,16 55.2,16 54.304,16 53.408,16.128 52.544,16.352 48,17.6 43.52,22.24 36.448,30.016 L 36.352,30.144 34.656,32 v 0 0 l 1.696,1.856 0.096,0.128 M 43.328,32 c 2.848,-3.104 5.088,-5.408 7.04,-7.072 2.688,-2.24 4.032,-2.528 4.832,-2.528 1.44,0 2.4,1.12 2.4,2.208 0,1.216 -0.448,2.08 -1.056,2.592 L 51.2,32 l 5.344,4.8 c 0.64,0.576 1.056,1.44 1.056,2.4 0,1.44 -1.12,2.4 -2.208,2.4 -0.992,0 -2.368,-0.32 -5.024,-2.56 C 48.416,37.408 46.176,35.104 43.328,32 M 33.984,27.584 C 41.696,20.544 46.304,16.096 47.616,11.456 47.872,10.528 48,9.6 48,8.608 48,3.808 44,0 39.2,0 37.184,0 35.2,0.608 33.6,1.76 33.024,2.176 32.48,2.656 32,3.2 31.52,2.656 30.976,2.176 30.4,1.76 28.8,0.608 26.784,0 24.608,0 19.808,0 16,4 16,8.8 c 0,0.896 0.128,1.792 0.352,2.656 C 17.6,16 22.24,20.48 30.016,27.584 l 0.128,0.096 1.76,1.6 0.096,0.096 0.096,-0.064 1.792,-1.632 0.096,-0.128 M 32,20.704 C 28.896,17.824 26.592,15.616 24.928,13.632 22.688,10.976 22.4,9.6 22.4,8.8 c 0,-1.44 1.12,-2.4 2.208,-2.4 1.216,0 2.08,0.448 2.592,1.056 L 32,12.8 36.8,7.456 C 37.376,6.816 38.24,6.4 39.2,6.4 c 1.44,0 2.4,1.12 2.4,2.208 0,0.992 -0.32,2.368 -2.56,5.024 -1.632,1.984 -3.936,4.192 -7.04,7.072 z"
     id="path2"
     style="fill:#009e60;fill-opacity:1;stroke-width:3.19999" />
</svg>
